src/assets/img/partners/gitlab-hero.svg

<svg width="148" height="32" viewBox="0 0 148 32" fill="none" xmlns="http://www.w3.org/2000/svg">
<g clip-path="url(#clip0_3518_22994)">
<path d="M32.7409 12.7937L32.6964 12.675L28.2037 0.955788C28.1128 0.725678 27.951 0.530475 27.7417 0.398436C27.5856 0.298488 27.4082 0.236507 27.2238 0.217462C27.0394 0.198416 26.8531 0.222835 26.6799 0.288762C26.5066 0.354689 26.3512 0.46029 26.2261 0.5971C26.101 0.733911 26.0097 0.898126 25.9595 1.07658L22.9269 10.3608H10.6461L7.61352 1.07658C7.56293 0.898392 7.47141 0.734486 7.34625 0.597938C7.22109 0.461389 7.06575 0.355975 6.89263 0.290102C6.71951 0.224229 6.53339 0.19972 6.34911 0.218529C6.16484 0.237338 5.98751 0.298944 5.83127 0.398436C5.62202 0.530475 5.46021 0.725678 5.36928 0.955788L0.878681 12.6771L0.832058 12.7937C0.185544 14.4833 0.105896 16.3374 0.605121 18.0762C1.10435 19.8151 2.15538 21.3446 3.59974 22.4339L3.6167 22.4466L3.65484 22.4763L10.4893 27.5984L13.88 30.1606L15.9399 31.7182C16.1816 31.9007 16.4762 31.9995 16.7791 31.9995C17.082 31.9995 17.3766 31.9007 17.6183 31.7182L19.6782 30.1606L23.0689 27.5984L29.9521 22.4466L29.9711 22.4318C31.4154 21.3428 32.4666 19.8139 32.9662 18.0755C33.4658 16.337 33.3867 14.4833 32.7409 12.7937Z" fill="white"/>
<path d="M59.6379 12.1876H64.4654C63.6601 7.05484 59.2161 3.47974 53.4328 3.47974C46.5899 3.47974 41.4551 8.51073 41.4551 16.9367C41.4551 25.2122 46.3589 30.3449 53.5727 30.3449C60.0469 30.3449 64.6816 26.1807 64.6816 19.4395V16.2988H54.0707V20.0011H60.0977C60.0214 23.7309 57.5314 26.0917 53.5981 26.0917C49.2199 26.0917 46.2191 22.8111 46.2191 16.8858C46.2191 10.9987 49.2707 7.73086 53.4964 7.73086C56.6498 7.73086 58.8071 9.41563 59.6379 12.1876Z" fill="white"/>
<path d="M67.8731 29.9868H72.4951V10.3841H67.8731V29.9868ZM70.2042 7.26889C71.6728 7.26889 72.8723 6.14359 72.8723 4.76611C72.8723 3.38862 71.6728 2.25061 70.2042 2.25061C68.7356 2.25061 67.5234 3.37379 67.5234 4.76611C67.5234 6.15843 68.7144 7.26889 70.1958 7.26889H70.2042Z" fill="white"/>
<path d="M86.3347 10.3842H82.4651V5.67529H77.8431V10.3842H75.0605V13.9593H77.8431V24.8647C77.8176 28.5542 80.5005 30.3746 83.9718 30.2666C84.8965 30.2482 85.8135 30.0932 86.6929 29.8067L85.913 26.1913C85.4713 26.3059 85.0173 26.3664 84.5609 26.3715C83.3975 26.3715 82.4651 25.9624 82.4651 24.0975V13.9487H86.3347V10.3842Z" fill="white"/>
<path d="M89.9121 29.9868H106.166V26.0154H94.6506V3.83582H89.9121V29.9868Z" fill="white"/>
<path d="M115.021 30.3831C118.098 30.3831 119.936 28.9399 120.779 27.2933H120.932V29.9868H125.382V16.8605C125.382 11.6769 121.156 10.1193 117.414 10.1193C113.29 10.1193 110.124 11.9566 109.102 15.5317L113.419 16.1463C113.877 14.8048 115.18 13.6562 117.446 13.6562C119.592 13.6562 120.766 14.754 120.766 16.6824V16.7587C120.766 18.0854 119.374 18.1511 115.913 18.5198C112.109 18.9288 108.471 20.0647 108.471 24.4832C108.458 28.3402 111.279 30.3831 115.021 30.3831ZM116.541 26.9924C114.612 26.9924 113.233 26.1108 113.233 24.4133C113.233 22.6374 114.778 21.8978 116.835 21.6032C118.05 21.4379 120.476 21.1307 121.074 20.6475V22.9574C121.086 25.1338 119.323 26.986 116.541 26.986V26.9924Z" fill="white"/>
<path d="M128.785 29.9868H133.331V26.897H133.598C134.327 28.3275 135.846 30.3322 139.218 30.3322C143.84 30.3322 147.301 26.666 147.301 20.2067C147.301 13.6689 143.738 10.1193 139.205 10.1193C135.745 10.1193 134.301 12.2003 133.598 13.6181H133.403V3.83582H128.785V29.9868ZM133.318 20.1812C133.318 16.3667 134.952 13.9105 137.927 13.9105C141.004 13.9105 142.59 16.5277 142.59 20.1812C142.59 23.8348 140.981 26.5389 137.927 26.5389C134.977 26.5389 133.318 23.9852 133.318 20.1812Z" fill="white"/>
</g>
<defs>
<clipPath id="clip0_3518_22994">
<rect width="147.073" height="32" fill="white" transform="translate(0.275391)"/>
</clipPath>
</defs>
</svg>

<svg xmlns="http://www.w3.org/2000/svg" width="148" height="32" fill="none"><clipPath id="a"><path d="M.275 0h147.073v32H.275z"/></clipPath><g fill="#fff" clip-path="url(#a)"><path d="m32.74 12.794-.044-.119L28.204.955a1.187 1.187 0 0 0-2.244.12l-3.033 9.286h-12.28L7.613 1.077A1.189 1.189 0 0 0 5.369.956L.88 12.677l-.047.117a8.34 8.34 0 0 0 2.768 9.64l.017.013.038.03 6.834 5.121 3.391 2.563 2.06 1.557a1.39 1.39 0 0 0 1.678 0l2.06-1.557 3.39-2.563 6.884-5.151.02-.015a8.34 8.34 0 0 0 2.769-9.638M59.638 12.188h4.827C63.66 7.055 59.216 3.48 53.433 3.48c-6.843 0-11.978 5.03-11.978 13.457 0 8.275 4.904 13.408 12.118 13.408 6.474 0 11.109-4.164 11.109-10.905v-3.141H54.07V20h6.027c-.077 3.73-2.567 6.09-6.5 6.09-4.378 0-7.379-3.28-7.379-9.205 0-5.887 3.052-9.155 7.277-9.155 3.154 0 5.311 1.685 6.142 4.457M67.873 29.987h4.622V10.384h-4.622zm2.331-22.718c1.469 0 2.668-1.125 2.668-2.503 0-1.377-1.2-2.515-2.668-2.515s-2.68 1.123-2.68 2.515 1.19 2.503 2.672 2.503zM86.335 10.384h-3.87V5.675h-4.622v4.71H75.06v3.574h2.783v10.906c-.025 3.69 2.657 5.51 6.129 5.402a9.4 9.4 0 0 0 2.72-.46l-.779-3.616a5.6 5.6 0 0 1-1.352.18c-1.164 0-2.096-.409-2.096-2.274V13.95h3.87zM89.912 29.987h16.254v-3.972H94.651V3.835h-4.739zM115.021 30.383c3.077 0 4.915-1.443 5.758-3.09h.153v2.694h4.45V16.86c0-5.184-4.226-6.742-7.968-6.742-4.124 0-7.29 1.838-8.312 5.413l4.317.614c.458-1.341 1.761-2.49 4.027-2.49 2.146 0 3.32 1.098 3.32 3.026v.077c0 1.326-1.392 1.392-4.853 1.76-3.804.41-7.442 1.546-7.442 5.964-.013 3.857 2.808 5.9 6.55 5.9m1.52-3.39c-1.929 0-3.308-.882-3.308-2.58 0-1.776 1.545-2.515 3.602-2.81 1.215-.165 3.641-.472 4.239-.956v2.31c.012 2.177-1.751 4.029-4.533 4.029zM128.785 29.987h4.546v-3.09h.267c.729 1.43 2.248 3.435 5.62 3.435 4.622 0 8.083-3.666 8.083-10.125 0-6.538-3.563-10.088-8.096-10.088-3.46 0-4.904 2.081-5.607 3.5h-.195V3.835h-4.618zm4.533-9.806c0-3.814 1.634-6.27 4.609-6.27 3.077 0 4.663 2.617 4.663 6.27 0 3.654-1.609 6.358-4.663 6.358-2.95 0-4.609-2.554-4.609-6.358"/></g></svg>
